X: 20
T: Merrily Kiss the Quaker's Wife
R:slide
M:6/8
K:G
"G" GAB D2B|"C" c2A "G" BGE| GAB DEG|"D" A3 AGE|
"G" GAB D2B|"C" c2A "G" BGE| GAB "D" DEF|1 "G"G3 G2D:|2 "G"G3 G2A||
|:"G" BGG AGG| BGG AGE| GAB DEG|"D" A3 AGA|
"G" BGG AGG| BGG AGE| GAB "D" DEF|1 "G" G3 G2A:|2 "G" G3 GBd||
|:"G" g3 "D"aga|"Em" bge "G" dBd| g3 gab|"D" a3 agf|
"G" g2g "D" faf|"Em" ege "D" dBA|"G" GAB "D" DEF|1 "G" G3 GBd:|2 "G" G3 G2D||


